X: 8073
T: Connor's
R: reel
M: 4/4
K: Fmajor
|:Gd G_G d=G FA|GF/2F/2 F2/2 f3 ef|g2 eg fe dc|de fd cB AB|
Gd G_G d=G FA|GF/2F/2 F2/2 f3 ef|g2 eg fe dc|de fe d4:|
|:BD Gd cB AG|AD Fc BA GF|EF G B3 EF|GB GF EC CC|
BD Gd cB AG|AD Fc BA GF|EF GB cB AG|FE CC C4:|

